src/assets/clients-icon.svg

<svg width="36" height="29" viewBox="0 0 36 29" fill="none" xmlns="http://www.w3.org/2000/svg">
<path d="M6.35294 7.51662C6.35294 6.27894 6.85494 5.09196 7.74849 4.21679C8.64205 3.34162 9.85397 2.84995 11.1176 2.84995C12.3813 2.84995 13.5932 3.34162 14.4868 4.21679C15.3804 5.09196 15.8824 6.27894 15.8824 7.51662C15.8824 8.7543 15.3804 9.94128 14.4868 10.8165C13.5932 11.6916 12.3813 12.1833 11.1176 12.1833C9.85397 12.1833 8.64205 11.6916 7.74849 10.8165C6.85494 9.94128 6.35294 8.7543 6.35294 7.51662ZM11.1176 0.775879C9.29233 0.775879 7.54178 1.48606 6.25109 2.7502C4.9604 4.01433 4.23529 5.72886 4.23529 7.51662C4.23529 9.30438 4.9604 11.0189 6.25109 12.283C7.54178 13.5472 9.29233 14.2574 11.1176 14.2574C12.943 14.2574 14.6935 13.5472 15.9842 12.283C17.2749 11.0189 18 9.30438 18 7.51662C18 5.72886 17.2749 4.01433 15.9842 2.7502C14.6935 1.48606 12.943 0.775879 11.1176 0.775879ZM23.1607 24.9285C24.3 25.3848 25.7336 25.6648 27.5294 25.6648C31.5127 25.6648 33.7151 24.2793 34.8755 22.6905C35.481 21.8568 35.8606 20.8863 35.9788 19.8698C35.9894 19.7754 35.9965 19.6806 36 19.5857V19.4425C36 19.034 35.9178 18.6294 35.7582 18.252C35.5986 17.8745 35.3646 17.5315 35.0696 17.2427C34.7747 16.9538 34.4245 16.7246 34.0391 16.5683C33.6537 16.4119 33.2407 16.3314 32.8235 16.3314H23.0188C23.5271 16.9329 23.9082 17.636 24.1306 18.4055H32.8235C33.1043 18.4055 33.3737 18.5148 33.5722 18.7092C33.7708 18.9037 33.8824 19.1675 33.8824 19.4425V19.5545L33.8718 19.6582C33.7907 20.3159 33.5432 20.9432 33.1518 21.4834C32.4593 22.4354 30.9558 23.5907 27.5294 23.5907C25.9793 23.5907 24.8231 23.3542 23.9569 23.0079C23.7833 23.5886 23.5313 24.244 23.1607 24.9285ZM0 20.4796C0 19.3794 0.446217 18.3243 1.24049 17.5464C2.03476 16.7685 3.11202 16.3314 4.23529 16.3314H18C19.1233 16.3314 20.2005 16.7685 20.9948 17.5464C21.7891 18.3243 22.2353 19.3794 22.2353 20.4796V20.6538C22.2353 20.6745 22.2353 20.7015 22.2311 20.7368C22.2053 21.1474 22.1451 21.5553 22.0511 21.9563C21.8711 22.7196 21.5132 23.74 20.7911 24.7646C19.3066 26.8677 16.4393 28.7759 11.1176 28.7759C5.796 28.7759 2.92871 26.8677 1.44424 24.7646C0.662451 23.6493 0.174987 22.3617 0.0254117 21.0168C0.0127576 20.8961 0.00428225 20.775 0 20.6538V20.4796ZM2.11765 20.604V20.6414L2.13247 20.8135C2.24721 21.8078 2.60933 22.7592 3.18706 23.5845C4.21835 25.0446 6.38047 26.7018 11.1176 26.7018C15.8548 26.7018 18.0169 25.0446 19.0482 23.5845C19.6261 22.7593 19.9882 21.8078 20.1028 20.8135C20.1098 20.7563 20.114 20.6989 20.1155 20.6414L20.1176 20.6061V20.4796C20.1176 19.9295 19.8945 19.402 19.4974 19.013C19.1003 18.624 18.5616 18.4055 18 18.4055H4.23529C3.67366 18.4055 3.13503 18.624 2.73789 19.013C2.34076 19.402 2.11765 19.9295 2.11765 20.4796V20.604ZM24.3529 9.07218C24.3529 8.24706 24.6876 7.45573 25.2833 6.87229C25.879 6.28884 26.687 5.96106 27.5294 5.96106C28.3719 5.96106 29.1798 6.28884 29.7755 6.87229C30.3712 7.45573 30.7059 8.24706 30.7059 9.07218C30.7059 9.89729 30.3712 10.6886 29.7755 11.2721C29.1798 11.8555 28.3719 12.1833 27.5294 12.1833C26.687 12.1833 25.879 11.8555 25.2833 11.2721C24.6876 10.6886 24.3529 9.89729 24.3529 9.07218ZM27.5294 3.88699C26.1253 3.88699 24.7787 4.43328 23.7859 5.4057C22.7931 6.37811 22.2353 7.69698 22.2353 9.07218C22.2353 10.4474 22.7931 11.7662 23.7859 12.7387C24.7787 13.7111 26.1253 14.2574 27.5294 14.2574C28.9335 14.2574 30.2801 13.7111 31.2729 12.7387C32.2658 11.7662 32.8235 10.4474 32.8235 9.07218C32.8235 7.69698 32.2658 6.37811 31.2729 5.4057C30.2801 4.43328 28.9335 3.88699 27.5294 3.88699Z" fill="#240000"/>
</svg>

<svg xmlns="http://www.w3.org/2000/svg" width="36" height="29" fill="none">
  <path fill="#240000" d="M6.353 7.517c0-1.238.502-2.425 1.395-3.3a4.816 4.816 0 0 1 3.37-1.367c1.263 0 2.475.492 3.369 1.367a4.618 4.618 0 0 1 1.395 3.3 4.619 4.619 0 0 1-1.395 3.3 4.816 4.816 0 0 1-3.37 1.366 4.816 4.816 0 0 1-3.369-1.367 4.619 4.619 0 0 1-1.395-3.3ZM11.118.776c-1.826 0-3.576.71-4.867 1.974a6.671 6.671 0 0 0-2.016 4.767c0 1.787.725 3.502 2.016 4.766a6.956 6.956 0 0 0 4.867 1.974c1.825 0 3.575-.71 4.866-1.974A6.671 6.671 0 0 0 18 7.517a6.671 6.671 0 0 0-2.016-4.767A6.956 6.956 0 0 0 11.118.776ZM23.16 24.928c1.139.457 2.573.737 4.368.737 3.984 0 6.186-1.386 7.347-2.974a5.973 5.973 0 0 0 1.103-2.821c.01-.095.017-.19.021-.284v-.143c0-.409-.082-.814-.242-1.191a3.105 3.105 0 0 0-.688-1.01 3.18 3.18 0 0 0-1.03-.674 3.233 3.233 0 0 0-1.216-.237h-9.805c.508.602.89 1.305 1.112 2.075h8.693c.28 0 .55.109.748.303.199.195.31.459.31.733v.113l-.01.103a3.93 3.93 0 0 1-.72 1.825c-.693.952-2.196 2.108-5.623 2.108-1.55 0-2.706-.237-3.572-.583-.174.58-.426 1.236-.796 1.92ZM0 20.48c0-1.1.446-2.156 1.24-2.934a4.281 4.281 0 0 1 2.995-1.215H18c1.123 0 2.2.438 2.995 1.215a4.105 4.105 0 0 1 1.24 2.934v.174c0 .02 0 .047-.004.083-.026.41-.086.818-.18 1.22a8.119 8.119 0 0 1-1.26 2.808c-1.484 2.103-4.352 4.01-9.673 4.01-5.322 0-8.19-1.907-9.674-4.01a8.085 8.085 0 0 1-1.419-3.748A5.265 5.265 0 0 1 0 20.654v-.174Zm2.118.124v.037l.014.173a6.038 6.038 0 0 0 1.055 2.77c1.031 1.46 3.193 3.118 7.93 3.118 4.738 0 6.9-1.657 7.931-3.118a6.034 6.034 0 0 0 1.055-2.77c.007-.058.011-.115.012-.173l.003-.035v-.126c0-.55-.223-1.078-.62-1.467A2.14 2.14 0 0 0 18 18.405H4.235c-.561 0-1.1.219-1.497.608s-.62.916-.62 1.467v.124ZM24.353 9.072c0-.825.335-1.616.93-2.2a3.21 3.21 0 0 1 2.246-.91c.843 0 1.65.327 2.247.91.595.584.93 1.375.93 2.2a3.08 3.08 0 0 1-.93 2.2 3.21 3.21 0 0 1-2.247.911 3.21 3.21 0 0 1-2.246-.91 3.08 3.08 0 0 1-.93-2.2Zm3.176-5.185a5.35 5.35 0 0 0-3.743 1.519 5.132 5.132 0 0 0-1.55 3.666c0 1.375.557 2.694 1.55 3.667a5.351 5.351 0 0 0 3.743 1.518c1.404 0 2.751-.546 3.744-1.518a5.132 5.132 0 0 0 1.55-3.667 5.131 5.131 0 0 0-1.55-3.666 5.35 5.35 0 0 0-3.744-1.519Z"/>
</svg>
